svg/u2734.svg

<svg viewBox="0 0 128 128" xmlns="http://www.w3.org/2000/svg">
  <radialGradient id="b" cx="-265" cy="-1565.7" gradientTransform="matrix(1.03e-13 1 -.6623 6.8e-14 -971.99 270.5)" gradientUnits="userSpaceOnUse" r="115.51">
    <stop offset="0" stop-color="#616161"/>
    <stop offset=".0319" stop-color="#FAA21E"/>
    <stop offset=".3023" stop-color="#F47C20"/>
    <stop offset=".7825" stop-color="#C55000"/>
    <stop offset="1" stop-color="#C55000"/>
  </radialGradient>
  <path d="m110.8 23.1-29.1 40.4c-0.4 0.7-0.4 1.5 0 2.2l29.1 42.3c1.2 1.8-1 3.9-2.8 2.8l-42.9-28.6c-0.7-0.4-1.5-0.4-2.2 0l-42.9 28.6c-1.8 1.2-3.9-1-2.8-2.8l29.1-42.3c0.4-0.7 0.4-1.5 0-2.2l-29.1-40.4c-1.2-1.8 1-3.9 2.8-2.8l42.9 26.6c0.7 0.4 1.5 0.4 2.2 0l42.9-26.6c1.8-1.1 3.9 1 2.8 2.8z" fill="url(#b)"/>
  <g opacity=".2">
    <path d="m105.3 25.5-26.1 36.2-0.1 0.1c-1.1 1.7-1.1 3.8 0 5.4l26.1 38-38.5-25.5c-0.8-0.5-1.8-0.8-2.7-0.8s-1.9 0.3-2.8 0.8l-38.6 25.6 26.1-38c1.1-1.7 1.1-3.8 0-5.4l-0.1-0.1-25.9-36.3 38.6 23.9c0.8 0.5 1.7 0.8 2.7 0.8 0.9 0 1.9-0.3 2.7-0.8l38.6-23.9m3.8-5.5c-0.4 0-0.7 0.1-1.1 0.3l-42.9 26.6c-0.3 0.2-0.7 0.3-1.1 0.3s-0.8-0.1-1.1-0.3l-42.9-26.6c-0.4-0.2-0.7-0.3-1.1-0.3-1.4 0-2.6 1.6-1.7 3.1l29.1 40.4c0.4 0.7 0.4 1.5 0 2.2l-29.1 42.3c-0.9 1.4 0.2 3.1 1.7 3.1 0.4 0 0.7-0.1 1.1-0.3l42.9-28.5c0.3-0.2 0.7-0.3 1.1-0.3s0.8 0.1 1.1 0.3l42.9 28.5c0.4 0.2 0.7 0.3 1.1 0.3 1.4 0 2.6-1.7 1.7-3.1l-29.1-42.3c-0.4-0.7-0.4-1.5 0-2.2l29.1-40.4c0.9-1.4-0.3-3.1-1.7-3.1z" fill="#eee"/>
  </g>
  <radialGradient id="a" cx="-266.67" cy="-1683.1" gradientTransform="matrix(1.03e-13 1 -.6204 6.4e-14 -980.85 270.67)" gradientUnits="userSpaceOnUse" r="120.34">
    <stop offset="0" stop-color="#F7BE72"/>
    <stop offset=".21" stop-color="#FAA21E"/>
    <stop offset=".5583" stop-color="#F47C20"/>
    <stop offset=".7436" stop-color="#F47C20"/>
    <stop offset="1" stop-color="#C55000"/>
  </radialGradient>
  <path d="m66 5.6 8.4 46.5c0.2 0.8 0.8 1.4 1.5 1.5l46.5 8.4c2.1 0.5 2.1 3.5 0 3.9l-46.6 8.4c-0.8 0.2-1.4 0.8-1.5 1.5l-8.3 46.6c-0.4 2.1-3.5 2.1-3.9 0l-8.4-46.6c-0.2-0.8-0.8-1.4-1.5-1.5l-46.6-8.3c-2.1-0.4-2.1-3.5 0-3.9l46.5-8.4c0.8-0.2 1.4-0.8 1.5-1.5l8.4-46.6c0.5-2.1 3.5-2.1 4 0z" fill="url(#a)"/>
  <g opacity=".2">
    <path d="M64,11.6l7.4,41v0.1c0.4,1.9,1.9,3.4,3.8,3.8h0.1l41,7.4l-41,7.4h-0.1c-1.9,0.4-3.4,1.9-3.8,3.8v0.1 l-7.4,41l-7.4-41v-0.1c-0.4-1.9-1.9-3.4-3.8-3.8h-0.1l-41-7.4l41-7.4h0.1c1.9-0.4,3.4-1.9,3.8-3.8v-0.1L64,11.6 M64,4 c-0.9,0-1.7,0.5-2,1.6l-8.4,46.5c-0.2,0.8-0.8,1.4-1.5,1.5L5.6,62c-2.1,0.5-2.1,3.5,0,3.9l46.5,8.4c0.8,0.2,1.4,0.8,1.5,1.5 l8.4,46.6c0.2,1.1,1.1,1.6,2,1.6s1.7-0.5,2-1.6l8.4-46.6c0.2-0.8,0.8-1.4,1.5-1.5l46.5-8.4c2.1-0.4,2.1-3.5,0-3.9l-46.6-8.4 c-0.8-0.2-1.4-0.8-1.5-1.5L66,5.6C65.7,4.5,64.9,4,64,4z" fill="#eee"/>
  </g>
</svg>

<svg viewBox="0 0 128 128" xmlns="http://www.w3.org/2000/svg" xmlns:xlink="http://www.w3.org/1999/xlink">
  <radialGradient id="SVGID_1_" cx="-265" cy="-1565.7347" gradientTransform="matrix(1.030000e-13 1 -0.6623 6.800000e-14 -971.9858 270.5)" gradientUnits="userSpaceOnUse" r="115.51">
    <stop offset="0" style="stop-color:#616161"/>
    <stop offset="0.0319" style="stop-color:#FAA21E"/>
    <stop offset="0.3023" style="stop-color:#F47C20"/>
    <stop offset="0.7825" style="stop-color:#C55000"/>
    <stop offset="1" style="stop-color:#C55000"/>
  </radialGradient>
  <path d="M110.8,23.1L81.7,63.5c-0.4,0.7-0.4,1.5,0,2.2l29.1,42.3c1.2,1.8-1,3.9-2.8,2.8L65.1,82.2 c-0.7-0.4-1.5-0.4-2.2,0L20,110.8c-1.8,1.2-3.9-1-2.8-2.8l29.1-42.3c0.4-0.7,0.4-1.5,0-2.2L17.2,23.1c-1.2-1.8,1-3.9,2.8-2.8 l42.9,26.6c0.7,0.4,1.5,0.4,2.2,0L108,20.3C109.8,19.2,111.9,21.3,110.8,23.1z" fill="url(#SVGID_1_)"/>
  <g opacity="0.2">
    <path d="M105.3,25.5L79.2,61.7l-0.1,0.1c-1.1,1.7-1.1,3.8,0,5.4l0,0l0,0l26.1,38L66.7,79.7 c-0.8-0.5-1.8-0.8-2.7-0.8s-1.9,0.3-2.8,0.8l-38.6,25.6l26.1-38l0,0l0,0c1.1-1.7,1.1-3.8,0-5.4l-0.1-0.1L22.7,25.5l38.6,23.9 c0.8,0.5,1.7,0.8,2.7,0.8c0.9,0,1.9-0.3,2.7-0.8L105.3,25.5 M109.1,20c-0.4,0-0.7,0.1-1.1,0.3L65.1,46.9c-0.3,0.2-0.7,0.3-1.1,0.3 s-0.8-0.1-1.1-0.3L20,20.3c-0.4-0.2-0.7-0.3-1.1-0.3c-1.4,0-2.6,1.6-1.7,3.1l29.1,40.4c0.4,0.7,0.4,1.5,0,2.2L17.2,108 c-0.9,1.4,0.2,3.1,1.7,3.1c0.4,0,0.7-0.1,1.1-0.3l42.9-28.5c0.3-0.2,0.7-0.3,1.1-0.3c0.4,0,0.8,0.1,1.1,0.3l42.9,28.5 c0.4,0.2,0.7,0.3,1.1,0.3c1.4,0,2.6-1.7,1.7-3.1L81.7,65.7c-0.4-0.7-0.4-1.5,0-2.2l29.1-40.4C111.7,21.7,110.5,20,109.1,20 L109.1,20z" fill="#EEEEEE"/>
  </g>
  <radialGradient id="SVGID_2_" cx="-266.667" cy="-1683.0767" gradientTransform="matrix(1.030000e-13 1 -0.6204 6.400000e-14 -980.8474 270.667)" gradientUnits="userSpaceOnUse" r="120.34">
    <stop offset="0" style="stop-color:#F7BE72"/>
    <stop offset="0.21" style="stop-color:#FAA21E"/>
    <stop offset="0.5583" style="stop-color:#F47C20"/>
    <stop offset="0.7436" style="stop-color:#F47C20"/>
    <stop offset="1" style="stop-color:#C55000"/>
  </radialGradient>
  <path d="M66,5.6l8.4,46.5c0.2,0.8,0.8,1.4,1.5,1.5l46.5,8.4c2.1,0.5,2.1,3.5,0,3.9l-46.6,8.4 c-0.8,0.2-1.4,0.8-1.5,1.5L66,122.4c-0.4,2.1-3.5,2.1-3.9,0l-8.4-46.6c-0.2-0.8-0.8-1.4-1.5-1.5L5.6,66c-2.1-0.4-2.1-3.5,0-3.9 l46.5-8.4c0.8-0.2,1.4-0.8,1.5-1.5L62,5.6C62.5,3.5,65.5,3.5,66,5.6z" fill="url(#SVGID_2_)"/>
  <g opacity="0.2">
    <path d="M64,11.6l7.4,41v0.1c0.4,1.9,1.9,3.4,3.8,3.8h0.1l41,7.4l-41,7.4h-0.1c-1.9,0.4-3.4,1.9-3.8,3.8v0.1 l-7.4,41l-7.4-41v-0.1c-0.4-1.9-1.9-3.4-3.8-3.8h-0.1l-41-7.4l41-7.4h0.1c1.9-0.4,3.4-1.9,3.8-3.8v-0.1L64,11.6 M64,4 c-0.9,0-1.7,0.5-2,1.6l-8.4,46.5c-0.2,0.8-0.8,1.4-1.5,1.5L5.6,62c-2.1,0.5-2.1,3.5,0,3.9l46.5,8.4c0.8,0.2,1.4,0.8,1.5,1.5 l8.4,46.6c0.2,1.1,1.1,1.6,2,1.6s1.7-0.5,2-1.6l8.4-46.6c0.2-0.8,0.8-1.4,1.5-1.5l46.5-8.4c2.1-0.4,2.1-3.5,0-3.9l-46.6-8.4 c-0.8-0.2-1.4-0.8-1.5-1.5L66,5.6C65.7,4.5,64.9,4,64,4z" fill="#EEEEEE"/>
  </g>
</svg>
